X:1
T:Gresford
C:Robert Saint of Hebburn
S:NoelJackson noeljackson:sky.com [tradtunes] 2019-10-27
L:1/4
M:C
K:Eb
P:Solo
|| G2 EA | G3  G | GF G>F | E4 |
|  A2 Gc | B3  G | GF FG  | F4 |
|  A2 GF | B2 AG | c2 de  | e d3 |
|  e2 BG | c3  A | G2 F2  | E4 ||
P:Harmony
|| E2 EE | E3  E | B,B, B,>B, | E4 |
|  C2 CC | E3  E | CC   CC    | B,4 |
|  C2 CC | E2 EE | A2   AA    | B B3 |
|  B2 BB | E3  E | E2   B,2   | B,4 ||
%
K:G
|| B2 Bc | B3  b | BA B>A | G4 |
|  c2 Be | d3  B | BA AB  | A4 |
|  C2 BA | d2 cB | e2 fg  | g f3 |
|  G2 dB | e3  c | B2 A2  | G4 ||
P:Harmony
|| G2 GG | G3  G | DD D>d | G4 |
|  e2 EE | G3  G | EE EE  | D4 |
|  E2 EE | G2 GG | c2 cc  | d d3 |
|  D2 DD | G3  G | G2 D2  | D4 ||






